!!!OTL: Yao Yah Yao
!!!OTL@@CHN: 摇呀摇
!!!ARE: China
**kern
*clefG2
*M6/8
*k[]
*MM80
{4e
8a
4g
8e
=1
4e
8a
4.g}
=2
{4e
8g
4a
8cc
=3
4g
8a
4.g}
=4
{4d
8e
4.g
=5
4d
8e
4.g}
=6
{4d
8e
4g
8a
=7
4e
8d
4.c}
==
*-
